X: 35017
T: Roll Her On The Mountain
R: reel
M: 4/4
K: Dmajor
dB|A2FA A2Fd|B2BA BcdB|A2FA d2AF|1 GABc de:|2 GBAF EFD2||
d2df edcB|ABcd efge|d2df edcA|BGFG E2D2|
d2df edcB|ABcd efge|f/g/a fa gece|dBAF E2||

